64x64/apps/terminus.svg

<svg height="64" width="64" xmlns="http://www.w3.org/2000/svg"><rect height="56" opacity=".2" rx="2.8" width="56" x="4" y="5"/><rect fill="#345c6e" height="56" rx="2.8" width="56" x="4" y="4"/><path d="m16 18.857v6.143l14 8.267-14 7.733v6.143l6.405 3.857 25.595-14.194v-7.358l-26.052-14.448z" opacity=".2"/><path d="m16 17.857v6.143l14 8.267-14 7.733v6.143l6.405 3.857 25.595-14.194v-7.358l-26.052-14.448z" fill="#a1ceea"/><g fill="#f4f4f7"><path d="m6.8 4c-1.55 0-2.8 1.25-2.8 2.8v1c0-1.55 1.25-2.8 2.8-2.8h50.4c1.55 0 2.8 1.25 2.8 2.8v-1c0-1.55-1.25-2.8-2.8-2.8z" opacity=".1"/><path d="m21.947 14-5.947 3.857v1l5.947-3.857 26.053 14.447v-1zm7.178 18.75-13.125 7.25v1l14-7.732z" opacity=".2"/></g></svg>

<svg xmlns="http://www.w3.org/2000/svg" width="64" height="64" version="1"><rect style="opacity:.2" width="56" height="56" x="4" y="5" rx="2.8" ry="2.8"/><rect style="fill:#345c6e" width="56" height="56" x="4" y="4" rx="2.8" ry="2.8"/><path style="opacity:.2" d="M16 18.857V25l14 8.267L16 41v6.143L22.405 51 48 36.806v-7.358L21.948 15z"/><path style="fill:#a1ceea" d="M16 17.857V24l14 8.267L16 40v6.143L22.405 50 48 35.806v-7.358L21.948 14z"/><path style="opacity:.1;fill:#f4f4f7" d="M6.8 4C5.25 4 4 5.25 4 6.8v1C4 6.25 5.25 5 6.8 5h50.4C58.75 5 60 6.25 60 7.8v-1C60 5.25 58.75 4 57.2 4H6.8z"/><path style="opacity:.2;fill:#f4f4f7" d="M21.947 14 16 17.857v1L21.947 15 48 29.447v-1L21.947 14zm7.178 18.75L16 40v1l14-7.732-.875-.518z"/></svg>
